X:2
T:Ratha Fair
R:reel
C:traditional
O:18th century Scottish
B:Bremner's Collections,1757
N:melodic codes 5H5H2H4H 5H5H5H5H (5524 5555)
Z:Paul Stewart Cranford (P.S.C.), <http://www.cranfordpub.com>
Q:300
L:1/8
M:C|
K:Ddor
g|adag ecge|adag adag|adag ecge|(f/g/a) ge d2 d:|
|:e|c(AA)c GAcG|cAAB cded|c(AA)c GAcG|(A/B/c) Ec D2 D:|
